X: 621
T:An Buachaill Dreoite
M:C
L:1/8
Q:160
S:from Mike Rafferty
R:fling
N:Play the grace note firmly - almost a smear
H:see "The Dance Music of Willie Clancy", "An Buachaill Dreoite" (page
H:99, no. 135).
N:Posted to the woodenflute mailing list January 2003
Z:Tom Madden
K:G
GF | DGGB d2cA | dGGF G2GF | DGGB d2cA | dcAG {E}F2 FE
| DGGB d2cA | dGGF GABd | gzgf gbag | fdcA G2:||
GA | B2BG c2cA | dGGF G2GA | BdBd c3A | dcAG {E}F3A
| B2BG c3A | d^cde fgaf | gzgf gbag | fdcA G2:||
<end>
<start>
